X: 1
T: Air Feasgar Ciuin Ceitein
R: waltz
M: 3/4
L: 1/8
K: Fmaj
C2|(D2 D2) C2|F3 G A2|A3 G F2|A3 B c2|A3 G F2|A3 B c2|
A2 A<(G G)F|F4 C2|D2 D2 C2|F3 G A2|A3 G F2|A3 B c2|
A3 G F2|A3 B c2|A2 A<(G G)F|F4 c2|c2 d2 e2|f2 e2 d2|
c2 d2 c2|A4 A2|c2 d2 e2|f2e2 d2|c2 A2 F2|G6|c2 d2 e2|
f2 e2 d2|c2 B3 A|G3 A HB2|A3 G F2|A3 B c2|
A2 A<(G G)F|F4||

